!!!OTL@@DE: Die W&uuml;rzburger Gl&ouml;ckli
!!!ONB: Volksweise
!!!ODT: 1824
!!!OMD: Leicht bewegt
!!!ONB: Volkslied
!!!OCL: Erk, Ludwig
!!!GCO: Deutscher Liederschatz, Band 1
**kern	**kern	**kern
*staff3	*staff2	*staff1
*Ipiano	*Ipiano	*Ivox
*clefF4	*clefG2	*clefG2
*k[f#c#]	*k[f#c#]	*k[f#c#]
*D:	*D:	*D:
*M3/8	*M3/8	*M3/8
*MM92	*MM92	*MM92
8r	8r	(16f#/
*	*clefF4	*
.	.	16g/)
=1	=1	=1
4D\	16r	8.a/
.	(16F#\LL	.
.	16d\	.
.	16A\	16g/
8DD/	16F#\	8f#/
.	16A\JJ)	.
=2	=2	=2
4AA/	16r	8f#/
.	(16G\LL	.
.	16c#\	8e/
.	16A\	.
8r	16G\	16e/LL
.	16A\JJ)	16f#/JJ
=3	=3	=3
4AA/	16r	8.g/
.	(16G\LL	.
.	16c#\	.
.	16A\	16f#/
8AA/	16G\	8e/
.	16A\JJ)	.
=4	=4	=4
4DD/	16r	4f#/
.	(16F#\LL	.
.	16d\	.
.	16A\	.
8r	16F#\	16f#/
.	16A\JJ)	16g/
=5	=5	=5
4D\	16r	8.a/
.	(16F#\LL	.
.	16d\	.
.	16A\	16g/
8DD/	16F#\	8f#/
.	16A\JJ)	.
=6	=6	=6
4AA/	16r	8f#/
.	(16G\LL	.
.	16c#\	8e/
.	16A\	.
8r	16G\	8e/
.	16A\JJ)	.
=7	=7	=7
4AA/	16r	8b\
.	(16G\LL	.
.	16c#\	8a/
.	16A\	.
8AA/	16G\	8c#/
.	16A\JJ)	.
=8	=8	=8
8D/L	16F#\LL	4d/
.	16A\J	.
8DD/J	8d\J	.
8r	8r	16r
*	*clefG2	*
.	.	16a/
=9	=9	=9
8AA\L	8r	16a\LL
.	.	16aa\JJ
8A\ 8e\ 8g\	8a\ 8cc#\ 8aa\L	8.gg\
8A\ 8e\ 8g\J	8a\ 8cc#\ 8aa\J	.
.	.	16a/
=10	=10	=10
8AA\L	8r	(16a\LL
.	.	16gg\JJ
8A\ 8d\ 8f#\	8a\ 8dd\ 8aa\L	8.ff#\)
8A\ 8d\ 8f#\J	8a\ 8dd\ 8aa\J	.
.	.	16a/
=11	=11	=11
*	*^	*
8AA\L	8r	16a\LL	16a\LL
.	.	16cc#\	16cc#\
8A\ 8e\ 8g\	8aa/L	16ee\	16ee\
.	.	16a\	16a\
8A\ 8e\ 8g\J	8aa/J	16cc#\	16cc#\
.	.	16ee\JJ	(16ee\JJ
*	*v	*v	*
=12	=12	=12
8D\L	(16dd\LL	16dd\LL)
.	16a\	16a\
8A\ 8d\ 8f#\	16dd\	16dd\
.	16ff#\JJ	(16ff#\JJ
8A\ 8d\ 8f#\J	16aa\)	16.aa\)
.	16r	.
.	.	32a/
=13	=13	=13
8AA\L	8r	(16a\LL
.	.	16aa\JJ
8A\ 8e\ 8g\	8a\ 8cc#\ 8aa\L	8.gg\)
8A\ 8e\ 8g\J	8a\ 8cc#\ 8aa\J	.
.	.	16a/
=14	=14	=14
8AA\L	8r	16a\LL
.	.	16gg\JJ
8A\ 8d\ 8f#\	8a\ 8dd\ 8aa\L	8.ff#\
8A\ 8d\ 8f#\J	8a\ 8dd\ 8aa\J	.
.	.	16a/
=15	=15	=15
*	*^	*
8AA\L	8r	16a\LL	(16a\LL
.	.	16b\	16b\
8A\ 8e\ 8g\	8aa/L	16cc#\	16cc#\
.	.	16dd\	16dd\
8A\ 8c#\ 8g\J	8aa/J	16ff#\	16ff#\
.	.	16ee\JJ	16ee\JJ
*	*v	*v	*
=16	=16	=16
8d\ 8f#\L	4dd\	4dd\)
8D\J	.	.
==	==	==
*-	*-	*-
!!!ENC: Craig Stuart Sapp
!!!END: 2004/05/27/
!!!EFL: 104/651
